X: 33281
T: Purse Rusted Shut, The
R: jig
M: 6/8
K: Eminor
|:B3 dBA|GEF G2A|Bef gag|edB ABc|
B3 dBA|GEF Ged|BAB dBA|GEE E3:|
|:G3 FED|EFA B2^c|d^cd B^cd|ABG FED|
GAB ABd|efd e2d|BAB dBA|GEE E3:|

